X:1
T:Can't you Dance the Polka
M:4/4
L:1/4
K:C
 G| E G G3/2 G/2| F A A3/2 A/2| G G F G| E3| G| c3/2 c/2 c G| B A A3/2 A/2|\
 G3/2 G/2 F D| C2 E| F| G3 E| F A3| B2 A2| A G2| z| c3 B| B A A2| G3/2 G/2 F B,|\
 D C2||
